X:1
T:Prélude
T:La Vielle
T:Anon. (XVIIe) Arr.Marieh
T:Recueil de pièces pour la Guitare (bnf, f.15v)
C:François Campion
%%score { ( 1 2 ) ( 3 4 ) }
L:1/8
Q:1/2=96
M:2/2
K:D
V:1 treble-8 nm="Guitare classique"
V:2 treble-8 
V:3 tab stafflines=6 strings=E2,A2,D3,G3,B3,E4 nostems nm="Guitare classique [Tablature]"
V:4 tab stafflines=6 strings=E2,A2,D3,G3,B3,E4 nostems 
V:1
 A2 d2 | e2 f2 g2 f2 | e2 d2 g2 f2 | e2 d2 c2 d2 | e2 d2 A2 d2 | e2 f2 g2 f2 | e2 d2 g2 f2 | %7
 e2 d2 e2 c2 | d4 :: A2 d2 | a2 a2 a2 a2 | f2 d2 g2 f2 | e2 d2 c2 d2 | e2 d2 A2 d2 | a2 a2 a2 a2 | %15
 f2 d2 g2 f2 | e2 d2 e2 c2 | d4 :| %18
V:2
 A,2 D2 | A,2 D2 A,2 D2 | A,2 D2 A,2 D2 | A,2 D2 A,2 D2 | A,2 D2 A,2 D2 | A,2 D2 A,2 D2 | %6
 A,2 D2 A,2 D2 | A,2 D2 E2 A,2 | D4 :: A,2 D2 | A,2 D2 A,2 D2 | A,2 D2 A,2 D2 | A,2 D2 A,2 D2 | %13
 A,2 D2 A,2 D2 | A,2 D2 A,2 D2 | A,2 D2 A,2 D2 | A,2 D2 E2 A,2 | D4 :| %18
V:3
 !3!A,2 !2!D2 | !1!E2 !1!F2 !1!G2 !1!F2 | !1!E2 !2!D2 !1!G2 !1!F2 | !1!E2 !2!D2 !2!C2 !2!D2 | %4
 !1!E2 !2!D2 !3!A,2 !2!D2 | !1!E2 !1!F2 !1!G2 !1!F2 | !1!E2 !2!D2 !1!G2 !1!F2 | %7
 !1!E2 !2!D2 !1!E2 !2!C2 | !2!D4 :: !3!A,2 !2!D2 | !1!A2 !1!A2 !1!A2 !1!A2 | %11
 !1!F2 !2!D2 !1!G2 !1!F2 | !1!E2 !2!D2 !2!C2 !2!D2 | !1!E2 !2!D2 !3!A,2 !2!D2 | %14
 !1!A2 !1!A2 !1!A2 !1!A2 | !1!F2 !2!D2 !1!G2 !1!F2 | !1!E2 !2!D2 !1!E2 !2!C2 | !2!D4 :| %18
V:4
 !5!A,,2 !4!D,2 | !5!A,,2 !4!D,2 !5!A,,2 !4!D,2 | !5!A,,2 !4!D,2 !5!A,,2 !4!D,2 | %3
 !5!A,,2 !4!D,2 !5!A,,2 !4!D,2 | !5!A,,2 !4!D,2 !5!A,,2 !4!D,2 | !5!A,,2 !4!D,2 !5!A,,2 !4!D,2 | %6
 !5!A,,2 !4!D,2 !5!A,,2 !4!D,2 | !5!A,,2 !4!D,2 !4!E,2 !5!A,,2 | !4!D,4 :: !5!A,,2 !4!D,2 | %10
 !5!A,,2 !4!D,2 !5!A,,2 !4!D,2 | !5!A,,2 !4!D,2 !5!A,,2 !4!D,2 | !5!A,,2 !4!D,2 !5!A,,2 !4!D,2 | %13
 !5!A,,2 !4!D,2 !5!A,,2 !4!D,2 | !5!A,,2 !4!D,2 !5!A,,2 !4!D,2 | !5!A,,2 !4!D,2 !5!A,,2 !4!D,2 | %16
 !5!A,,2 !4!D,2 !4!E,2 !5!A,,2 | !4!D,4 :| %18

